icons/svg/ribbon-star.svg

<svg width="24" height="24" viewBox="0 0 24 24" fill="none" xmlns="http://www.w3.org/2000/svg">
<path d="M18.4094 9.1594C18.4094 11.1937 17.4617 13.0066 15.9837 14.1808C14.8898 15.0497 13.5055 15.5688 12 15.5688C10.4944 15.5688 9.11013 15.0497 8.01628 14.1807C6.53829 13.0066 5.59058 11.1937 5.59058 9.1594C5.59058 5.61959 8.46016 2.75 12 2.75C15.5398 2.75 18.4094 5.61959 18.4094 9.1594Z" stroke="currentColor" stroke-width="1.5" stroke-linecap="round" stroke-linejoin="round"/>
<path d="M15.9837 14.1807V21.25L12 18.2666L8.0163 21.25V14.1807" stroke="currentColor" stroke-width="1.5" stroke-linecap="round" stroke-linejoin="round"/>
<path d="M11.4547 6.74019C11.6338 6.43258 11.7234 6.27878 11.8401 6.22703C11.9419 6.18189 12.0581 6.18189 12.1599 6.22703C12.2766 6.27878 12.3661 6.43258 12.5453 6.74019L13.0331 7.57776C13.0847 7.66628 13.1105 7.71054 13.1451 7.74576C13.1757 7.77697 13.2114 7.80287 13.2505 7.82239C13.2947 7.8444 13.3448 7.85524 13.4449 7.87692L14.3922 8.08207C14.7402 8.15741 14.9141 8.19508 14.9994 8.29007C15.0738 8.37295 15.1097 8.48341 15.0982 8.59418C15.0851 8.72116 14.9665 8.85388 14.7293 9.11933L14.0834 9.84213C14.0152 9.91851 13.9811 9.95671 13.9583 10.0005C13.938 10.0393 13.9244 10.0812 13.918 10.1245C13.9107 10.1733 13.9158 10.2243 13.9262 10.3262L14.0238 11.2905C14.0597 11.6447 14.0776 11.8218 14.0136 11.9323C13.9578 12.0286 13.8638 12.0969 13.7549 12.1202C13.6301 12.1469 13.4672 12.0752 13.1415 11.9316L12.2545 11.5407C12.1607 11.4994 12.1139 11.4788 12.0652 11.4706C12.022 11.4634 11.978 11.4634 11.9348 11.4706C11.8861 11.4788 11.8392 11.4994 11.7455 11.5407L10.8585 11.9316C10.5328 12.0752 10.3699 12.1469 10.2451 12.1202C10.1362 12.0969 10.0422 12.0286 9.98636 11.9323C9.92237 11.8218 9.9403 11.6447 9.97616 11.2905L10.0738 10.3262C10.0841 10.2243 10.0893 10.1733 10.082 10.1245C10.0755 10.0812 10.0619 10.0393 10.0417 10.0005C10.0189 9.95671 9.98477 9.91851 9.91652 9.84213L9.27069 9.11933C9.0335 8.85388 8.91491 8.72116 8.90176 8.59418C8.89029 8.48341 8.92618 8.37295 9.00057 8.29007C9.08584 8.19508 9.2598 8.15741 9.60772 8.08207L10.5551 7.87692C10.6552 7.85524 10.7052 7.8444 10.7494 7.82239C10.7886 7.80287 10.8242 7.77697 10.8549 7.74576C10.8895 7.71054 10.9153 7.66628 10.9668 7.57776L11.4547 6.74019Z" fill="currentColor"/>
</svg>

<svg xmlns="http://www.w3.org/2000/svg" width="24" height="24" fill="none" viewBox="0 0 24 24"><path stroke="currentColor" stroke-linecap="round" stroke-linejoin="round" stroke-width="1.5" d="M18.41 9.16a6.4 6.4 0 0 1-2.426 5.02A6.38 6.38 0 0 1 12 15.57c-1.506 0-2.89-.52-3.984-1.388A6.41 6.41 0 1 1 18.41 9.16"/><path stroke="currentColor" stroke-linecap="round" stroke-linejoin="round" stroke-width="1.5" d="M15.984 14.18v7.07L12 18.267 8.016 21.25v-7.07"/><path fill="currentColor" d="M11.455 6.74c.179-.307.268-.461.385-.513a.4.4 0 0 1 .32 0c.117.052.206.206.385.513l.488.838a1 1 0 0 0 .112.168q.045.047.106.076a1 1 0 0 0 .194.055l.947.205c.348.075.522.113.607.208.075.083.11.193.1.304-.014.127-.133.26-.37.525l-.646.723a1 1 0 0 0-.125.159.4.4 0 0 0-.04.123 1 1 0 0 0 .008.202l.098.964c.036.355.054.532-.01.642a.4.4 0 0 1-.26.188c-.124.027-.287-.045-.612-.188l-.887-.391a1 1 0 0 0-.19-.07.4.4 0 0 0-.13 0 1 1 0 0 0-.19.07l-.886.39c-.326.144-.49.216-.614.19a.4.4 0 0 1-.259-.189c-.064-.11-.046-.287-.01-.642l.098-.964c.01-.102.015-.153.008-.202a.4.4 0 0 0-.04-.123 1 1 0 0 0-.125-.159L9.27 9.12c-.238-.265-.356-.398-.37-.525a.4.4 0 0 1 .1-.304c.085-.095.259-.133.607-.208l.947-.205c.1-.022.15-.033.194-.055a.4.4 0 0 0 .106-.076 1 1 0 0 0 .112-.168z"/></svg>
